X: 31609
T: Panda, The
R: jig
M: 6/8
K: Aminor
|:cAA dcA|eee ecA|ddd GBG|d2e edB|
cAA dcA|eee ecA|ddd edB|1 cAG A3|2 cAG A2||
|:e|gee ege|aaa age|ddd GBG|d2e edB|
1 gee ege|aaa age|ddd edB|cAG A2:|
2 cAA dcA|eee ecA|ddd edB|cAG A3||

